packages/kaspersky-hexa-ui-icons/src/iconsSVGs/16/ShieldOKSolid.svg

<svg width="16" height="16" viewBox="0 0 16 16" fill="none" xmlns="http://www.w3.org/2000/svg">
<path fill-rule="evenodd" clip-rule="evenodd" d="M10.0772 14.1554C9.56439 14.5069 9.10222 14.7454 8.76437 14.8973C8.72788 14.9137 8.69056 14.9311 8.65256 14.9489C8.44743 15.0448 8.22242 15.1501 8.00008 15.15C7.78269 15.15 7.54852 15.0495 7.34231 14.9611C7.30949 14.947 7.27739 14.9332 7.24617 14.9202C6.90172 14.7766 6.43141 14.5472 5.91063 14.1992C4.86676 13.5015 3.61939 12.3259 2.78607 10.419C2.3725 9.47266 2.2793 8.45628 2.2793 7.5192V4.13223C2.2793 3.88957 2.41446 3.66711 2.62984 3.55532L7.23991 1.16234C7.7165 0.914961 8.28366 0.91496 8.76024 1.16234L13.3703 3.55532C13.5857 3.66711 13.7209 3.88957 13.7209 4.13223V7.4774C13.7209 8.44228 13.6224 9.49323 13.1778 10.4629C12.34 12.2901 11.1036 13.4518 10.0772 14.1554ZM10.5589 6.37297C10.8128 6.62681 10.8128 7.03837 10.5589 7.29221L8.22399 9.62715C8.10209 9.74905 7.93676 9.81753 7.76437 9.81753C7.59198 9.81753 7.42665 9.74905 7.30475 9.62715L5.87788 8.20028C5.62404 7.94644 5.62404 7.53488 5.87788 7.28104C6.13172 7.0272 6.54328 7.0272 6.79712 7.28104L7.76437 8.24829L9.6397 6.37297C9.89354 6.11913 10.3051 6.11913 10.5589 6.37297Z" fill="black"/>
</svg>

<svg xmlns="http://www.w3.org/2000/svg" width="16" height="16" fill="none" viewBox="0 0 16 16"><path fill="#000" fill-rule="evenodd" d="M10.0772 14.1553c-.5128.3515-.975.59-1.3128.7418a9 9 0 0 0-.1118.0517c-.2052.0959-.4302.2011-.6525.2011-.2174 0-.4516-.1005-.6578-.1889q-.0493-.0213-.0961-.0409c-.3445-.1436-.8148-.373-1.3356-.7211-1.0438-.6976-2.2912-1.8732-3.1245-3.7801-.4136-.9464-.5068-1.9627-.5068-2.8998V4.132a.65.65 0 0 1 .3505-.577L7.24 1.1623a1.65 1.65 0 0 1 1.5203 0l4.6101 2.393a.65.65 0 0 1 .3506.5769v3.3452c0 .9649-.0985 2.0158-.5431 2.9855-.8378 1.8272-2.0742 2.9889-3.1006 3.6925m.4817-7.7825a.65.65 0 0 1 0 .9193l-2.335 2.335a.65.65 0 0 1-.9192 0L5.878 8.2a.65.65 0 0 1 .9192-.9192l.9673.9673 1.8753-1.8754a.65.65 0 0 1 .9192 0"/></svg>
